!!!SOCIAL_FUNCTION: bear dance songs
!!!PDT:	1943
!!!LING_GROUP: Muskogean
!!!LANG: Non-Tone
Specific Region: Oklahoma, California, Mississippi, Louisiana, Texas, Alabama
!!!REG: Southeast
!!!COM: Anon.
!!!OTL: Steal-partner Dance Song (g)
!!!ODT: <1933//
!!!MPN: Lapintabeseihoke [Kills it Himself, Sidney Wesley]
!!!MLC: Philadelphia, Mississippi, United States of America
!! Song was recorded in January 1933.
!!!AGN: monody
!!!AMT: irregular
!!!RWG: Transcribed pitches, durations, and meters are only approximate.
**kern
*ICvox
*Imale
*clefF4
*k[f#c#g#d#]
*M2/4
*MM116
*[A,B,C,B]
*>A
=1-
8.r
16B
8.B
16B
=2
4B
4r
*>B
=3
4c#
8.B
16c#
*M3/4
=4
4.G#
8.r
16G#
12G#
12E
12G#
*M2/4
=5
4G#
4r
=6
4G#
8.B
16G#
*M3/4
=7
4F#
8.r
16G#
12G#
12F#
12G#
*M2/4
=8
4G#
4r
!! Fine
==9
*>C
4c#
8.B
16c#
*M3/4
=10
4G#
8.r
16B
8.B
16B
*M2/4
=11
4B
4r
=:|!
*-
!!!CNT: Choctaw
!!!TXO: Choctaw
!!!OCY: United States
!!!OCL: Frances Densmore
!!!YOR: Frances Densmore, "Choctaw Music"
!!!YOR: Bulletin 136, page 157, No. 39
!!!PPR: Smithsonian Institution, Bureau of American Ethnology
!!!PPR: Government Printing Office
!!!PDT: 1943
!!!PPP: Washington, DC, United States of America
!!!YEC: Electronic Copyright 2000 David Huron
!!!YER: August 2000
!!!YEN: United States of America
!!!ENC: David Huron
!!!RDT: August 28, 2000
!!!EEV: Release 1.0
!!!AIN: vox
